!!!COM: Beethoven
!!!OTL: Acht Variationen uber das Trio "Tandeln und Scherzen" aus der Oper: Soliman oder die drei Sultaninnen von Sussmayer
!!!Variation: Variation 8 a
**function	**harm	**kern	**kern
*	*	*clefF4	*clefG2
*	*	*k[b-]	*k[b-]
*M2/4	*M2/4	*M2/4	*M2/4
*F:	*F:	*F:	*F:
=197	=197	=197	=197
2T	2I	2r	8f
.	.	.	4a
.	.	.	8f
=198	=198	=198	=198
2T	2V	2r	4cc
.	.	.	(16bLL
.	.	.	16cc
.	.	.	16dd
.	.	.	16ccJJ)
=199	=199	=199	=199
2T	2V7	2r	8b-'L
.	.	.	8b-'
.	.	.	8g'
.	.	.	8cc'J
=200	=200	=200	=200
2T	2I	2r	8a'L
.	.	.	8cc'
.	.	.	8f'
.	.	.	8a'J
=201	=201	=201	=201
*	*	*	*^
2T	2V	2r	8c	8e'L
.	.	.	4e	8g'
.	.	.	.	8cc'
.	.	.	8c	8cc'J
=202	=202	=202	=202	=202
2T	2V7d/V	2r	4f	(8ccL
.	.	.	.	8bJ)
.	.	.	(16eLL	8r
.	.	.	16f	.
.	.	.	16g	8b
.	.	.	16fJJ)	.
=203	=203	=203	=203	=203
4P	4V7	2r	8e'L	8ggL
.	.	.	8e'	8b-J
4P	4viiob/IV	.	8c'	8r
.	.	.	8e-'J	8a
=204	=204	=204	=204	=204
4P	4IV	2r	8d'L	8b-L
.	.	.	8B-'	8ff
4P	4V7	.	8e'	8b-
.	.	.	8c'J	8ggJ
=205	=205	=205	=205	=205
2P	2I	8F	4a	8fL
.	.	4A	.	8c
.	.	.	8r	8f
.	.	8F	8a	8fJ
=206	=206	=206	=206	=206
2P	2V	4c	4g	(8fL
.	.	.	.	8eJ)
.	.	(16BLL	4r	8r
.	.	16c	.	.
.	.	16d	.	8e
.	.	16cJJ)	.	.
=207	=207	=207	=207	=207
2P	2V7d	8B-'L	8r	8ccL
.	.	8B-'	8cc'L	8e
.	.	8G'	8dd'	8f
.	.	8c'J	8ee'J	8gJ
*	*	*	*v	*v
=208	=208	=208	=208
2P	2Ib	8A'L	8a'L 8ff'
.	.	8F'J	8cc'J 8aa'
.	.	(16G#LL	4r
.	.	16A	.
.	.	16B-	.
.	.	16AJJ)	.
=209	=209	=209	=209
2P	2V7d/vi	8G'L	8r
.	.	8G'	8c#'L 8a'
.	.	8E'	8d' 8b'
.	.	8A'J	8e'J 8cc#'
=210	=210	=210	=210
2P	2vib	8F'L	8f'L 8dd'
.	.	8D'J	8a'J 8ff'
.	.	(16ELL	4r
.	.	16F	.
.	.	16G	.
.	.	16FJJ)	.
=211	=211	=211	=211
2P	2V7d/IV	8E-'L	8r
.	.	8E-'	8A'L 8f'
.	.	8C'	8B-' 8g'
.	.	8F'J	8c'J 8a'
*-	*-	*-	*-
